X:1
T:Tudelsack
T:Tudelsack
%%score 1 2 3
L:1/8
M:4/4
K:G
V:1 treble-8 nm="Classical Guitar" snm="Guit."
V:2 treble-8 nm="Classical Guitar" snm="Guit."
V:3 treble-8 nm="Classical Guitar" snm="Guit."
V:1
 GA | B2 AG d2 ef | g2 fe d2 g2 | efde cdBc | AGFE D2 A2 | Bcde A3 G | G6 GA | B2 AG d2 ef | %8
 g2 fe d2 g2 | efde cdBc | AGFE D2 A2 | Bcde A3 G | G6 d2 | g2 g2 g2 ab | e2 e2 e2 e2 | %15
 a2 a2 a2 bc' | f2 ef d2 g2 | e2 d2 d2 g2 | e2 d2 d2 cB | e2 d2 cBAG | F2 EF D2 GA | B2 AG d2 ef | %22
 g2 fe d2 g2 | efde cdBc | AGFE D2 A2 | Bcde A3 G | G6 |] %27
V:2
 GA | B2 AG d2 c2 | d2 c2 B2 B2 | c2 B2 A2 G2 | FED^C D2 F2 | G2 G2 G2 F2 | G2 FE D2 EF | %7
 G2 DE F2 G2 | GBdc B2 G2 | G2 G2 F2 G2 | D2 D^C D2 FE | D2 GA G2 F2 | G2 EF GABc | d2 c2 BdcB | %14
 A2 ^G2 ABcd | e2 d2 cd e2 | d2 ^c2 d=cBA | G2 GF G2 BA | G2 GF G2 ^GB | c2 B2 A2 E2 | %20
 D2 ^C2 D2 DF | G2 FE FGAd | dGdc B2 B2 | G2 G2 F2 G2 | D2 D^C D2 D2 | DEFG G2 F2 | G6 |] %27
V:3
 GA | B2 AG d2 c2 | B2 A2 G2 G2 | G2 G2 F2 G2 | D2 A,2 D2 D2 | G,A,B,C D2 D2 | G,2 A,2 B,2 CA, | %7
 G,2 A,2 B,2 C2 | B,2 A,2 G,2 B,2 | C2 B,2 A,2 G,2 | F,2 A,2 D2 D2 | G,A,B,C D2 D2 | %12
 G,2 A,2 B,2 G,A, | B,2 A,2 G,4 | C2 B,2 A,4 | C2 B,2 A,2 B,2 | D2 A,2 D2 d2 | c2 BA B2 G2 | %18
 C2 B,A, B,2 E,2 | A,2 B,2 C2 ^C2 | D2 A,2 DCB,A, | G,2 D2 B,2 C2 | B,2 A,2 G,2 G,2 | %23
 C2 B,2 A,2 G,2 | F,2 A,2 D2 F,2 | G,A,B,C D2 D2 | G,6 |] %27

